/* XPM */
static char *south[] = {
/* columns rows colors chars-per-pixel */
"64 64 2 1",
"  c #FFFFFF",
". c #000000",
/* pixels */
"                                                                ",
"                                                                ",
"                                                                ",
"                                                                ",
"                                                                ",
"                                                                ",
"                                                                ",
"                                                                ",
"                           .....                                ",
"                           ......                               ",
"                            .......                             ",
"                             ......                             ",
"                             .....                              ",
"                             .....                              ",
"                             .....                              ",
"                             ...........                        ",
"                             .............                      ",
"                  .          ...............                    ",
"                   .........................                    ",
"                     ......................                     ",
"                      ..................                        ",
"                        ..........                              ",
"                           ......                               ",
"                           ......                               ",
"                          ......                                ",
"                         ......                                 ",
"                        .......   .........                     ",
"                      ..........................                ",
"                     .................      ......              ",
"                    ......       ....        ......             ",
"            .         ....       ....         ......            ",
"            ..        ......    ....          ......            ",
"             ..        ....    ....           ......            ",
"             ...        ...   .....           ......            ",
"             ...        ...........           ......            ",
"             ....      ..............         ......            ",
"             ....       ............          ......            ",
"             .....       .........            ......            ",
"             .....          .....             ......            ",
"              ....         ......             ......            ",
"              ....       ..  .........        .....             ",
"              ....     ...  ..........       ......             ",
"              .....  ................        ......             ",
"              .....  ...........             ......             ",
"              .....   ..... ....            ......              ",
"              .....         ....            ......              ",
"               ....         ....           ......               ",
"               ....         ....          .......               ",
"               ....         ...          ........               ",
"               ....         ...         ........                ",
"                ...         ...    .............                ",
"                            ...     ...........                 ",
"                             ..     ...........                 ",
"                              .      .........                  ",
"                                       ......                   ",
"                                        ....                    ",
"                                                                ",
"                                                                ",
"                                                                ",
"                                                                ",
"                                                                ",
"                                                                ",
"                                                                ",
"                                                                ",
};
